preferences/32/preferences-desktop-virtual.svg

<?xml version="1.0" encoding="UTF-8" standalone="no"?>
<!-- Created with Inkscape (http://www.inkscape.org/) -->

<svg
   width="32"
   height="32"
   version="1.1"
   viewBox="0 0 32 32"
   id="svg22"
   sodipodi:docname="preferences-desktop-virtual.svg"
   inkscape:version="1.1.2 (0a00cf5339, 2022-02-04)"
   xmlns:inkscape="http://www.inkscape.org/namespaces/inkscape"
   xmlns:sodipodi="http://sodipodi.sourceforge.net/DTD/sodipodi-0.dtd"
   xmlns:xlink="http://www.w3.org/1999/xlink"
   xmlns="http://www.w3.org/2000/svg"
   xmlns:svg="http://www.w3.org/2000/svg">
  <sodipodi:namedview
     id="namedview24"
     pagecolor="#ffffff"
     bordercolor="#666666"
     borderopacity="1.0"
     inkscape:showpageshadow="2"
     inkscape:pageopacity="0.0"
     inkscape:pagecheckerboard="0"
     inkscape:deskcolor="#d1d1d1"
     showgrid="false"
     inkscape:zoom="25.62"
     inkscape:cx="11.202186"
     inkscape:cy="16.900859"
     inkscape:window-width="3440"
     inkscape:window-height="1356"
     inkscape:window-x="0"
     inkscape:window-y="0"
     inkscape:window-maximized="1"
     inkscape:current-layer="svg22"
     inkscape:pageshadow="2" />
  <defs
     id="defs12">
    <linearGradient
       id="linearGradient1005-3-3"
       x1="5.2535"
       x2="9.3823996"
       y1="15.383"
       y2="2.9421"
       gradientTransform="matrix(0.99999,0,0,0.99999,1.632,-0.61743)"
       gradientUnits="userSpaceOnUse">
      <stop
         stop-color="#fa8200"
         offset="0"
         id="stop2" />
      <stop
         stop-color="#ff9600"
         offset=".36953"
         id="stop4" />
      <stop
         stop-color="#ffb400"
         offset="1"
         id="stop6" />
    </linearGradient>
    <filter
       id="filter4014"
       x="-0.062499933"
       y="-0.057692993"
       width="1.1249999"
       height="1.115386"
       color-interpolation-filters="sRGB">
      <feGaussianBlur
         stdDeviation="1.093751"
         id="feGaussianBlur9" />
    </filter>
    <linearGradient
       inkscape:collect="always"
       xlink:href="#linearGradient3487"
       id="linearGradient3403"
       gradientUnits="userSpaceOnUse"
       x1="6.9491749"
       y1="4.5549412"
       x2="11.215498"
       y2="59.052471" />
    <linearGradient
       id="linearGradient3487">
      <stop
         style="stop-color:#32373c;stop-opacity:1"
         offset="0"
         id="stop3481" />
      <stop
         id="stop3483"
         offset="0.36804965"
         style="stop-color:#1a1a1a;stop-opacity:1" />
      <stop
         style="stop-color:#31363b;stop-opacity:1"
         offset="1"
         id="stop3485" />
    </linearGradient>
    <linearGradient
       inkscape:collect="always"
       xlink:href="#linearGradient20604"
       id="linearGradient20558"
       gradientUnits="userSpaceOnUse"
       x1="25.802212"
       y1="20.373846"
       x2="25.111048"
       y2="58.912758" />
    <linearGradient
       id="linearGradient20604">
      <stop
         id="stop20598"
         offset="0"
         style="stop-color:#3d3d3d;stop-opacity:1" />
      <stop
         style="stop-color:#000000;stop-opacity:1"
         offset="0.61772454"
         id="stop20600" />
      <stop
         id="stop20602"
         offset="1"
         style="stop-color:#3d3d3d;stop-opacity:1" />
    </linearGradient>
    <filter
       inkscape:collect="always"
       style="color-interpolation-filters:sRGB"
       id="filter20720"
       x="-0.017024755"
       y="-0.016457183"
       width="1.0340491"
       height="1.0329144">
      <feGaussianBlur
         inkscape:collect="always"
         stdDeviation="0.14745661"
         id="feGaussianBlur20722" />
    </filter>
    <linearGradient
       gradientTransform="translate(0.36067797,-0.13016949)"
       xlink:href="#linearGradient4555"
       id="linearGradient4557"
       x1="43.499737"
       y1="64.011795"
       x2="44.141731"
       y2="0.30621234"
       gradientUnits="userSpaceOnUse" />
    <linearGradient
       id="linearGradient4555">
      <stop
         style="stop-color:#141618;stop-opacity:1"
         offset="0"
         id="stop4551" />
      <stop
         id="stop4559"
         offset="0.51820582"
         style="stop-color:#686868;stop-opacity:1" />
      <stop
         style="stop-color:#31363b;stop-opacity:1"
         offset="1"
         id="stop4553" />
    </linearGradient>
    <filter
       style="color-interpolation-filters:sRGB"
       id="filter4601"
       x="-0.030244762"
       width="1.0604895"
       y="-0.030100647"
       height="1.0602013">
      <feGaussianBlur
         stdDeviation="0.014790289"
         id="feGaussianBlur4603" />
    </filter>
    <linearGradient
       id="c"
       gradientUnits="userSpaceOnUse"
       x1="32"
       x2="32"
       y1="30"
       y2="2">
      <stop
         offset="0"
         stop-color="#171d25"
         id="stop18" />
      <stop
         offset="1"
         stop-color="#303236"
         id="stop20" />
    </linearGradient>
    <linearGradient
       id="d"
       gradientUnits="userSpaceOnUse"
       x1="8"
       x2="16"
       xlink:href="#a"
       y1="9"
       y2="17" />
    <linearGradient
       id="a">
      <stop
         offset="0"
         id="stop7" />
      <stop
         offset="1"
         stop-opacity="0"
         id="stop9" />
    </linearGradient>
    <linearGradient
       id="e"
       gradientUnits="userSpaceOnUse"
       x1="8"
       x2="15"
       xlink:href="#a"
       y1="23"
       y2="30" />
    <linearGradient
       id="f"
       gradientUnits="userSpaceOnUse"
       x1="24"
       x2="32"
       xlink:href="#a"
       y1="9"
       y2="17" />
    <linearGradient
       id="g"
       gradientUnits="userSpaceOnUse"
       x1="24"
       x2="31"
       xlink:href="#a"
       y1="23"
       y2="30" />
    <linearGradient
       id="h"
       gradientUnits="userSpaceOnUse"
       x1="8"
       x2="12"
       xlink:href="#b"
       y1="9"
       y2="13" />
    <linearGradient
       id="b">
      <stop
         offset="0"
         stop-color="#292c2f"
         id="stop2-0" />
      <stop
         offset="1"
         stop-opacity="0"
         id="stop4-3" />
    </linearGradient>
    <linearGradient
       id="i"
       gradientUnits="userSpaceOnUse"
       x1="24"
       x2="28"
       xlink:href="#b"
       y1="23"
       y2="27" />
  </defs>
  <g
     id="g883"
     transform="matrix(0.86087086,0,0,0.95414844,2.5689741,0.19343123)">
    <path
       d="M 0,2 H 32 V 30 H 0 Z"
       fill="url(#c)"
       fill-rule="evenodd"
       id="path23"
       style="fill:url(#c)" />
    <path
       d="m 1,15 2,2 h 12 l 2,2 2,-2 -2,-2 V 5 L 15,3 Z"
       fill="url(#d)"
       opacity="0.2"
       id="path25"
       style="fill:url(#d)" />
    <path
       d="m 1,29 1,1 H 18 L 17,29 V 19 l -2,-2 z"
       fill="url(#e)"
       opacity="0.2"
       id="path27"
       style="fill:url(#e)" />
    <path
       d="m 17,15 2,2 h 12 l 1,1 V 4 L 31,3 Z"
       fill="url(#f)"
       opacity="0.2"
       id="path29"
       style="fill:url(#f)" />
    <path
       d="m 17,29 1,1 H 32 V 18 l -1,-1 z"
       fill="url(#g)"
       opacity="0.2"
       id="path31"
       style="fill:url(#g)" />
    <path
       d="M 1,3 H 15 V 15 H 1 Z"
       fill="#397da1"
       fill-rule="evenodd"
       id="path33" />
    <path
       d="M 1,17 H 15 V 29 H 1 Z M 17,3 H 31 V 15 H 17 Z m 0,14 H 31 V 29 H 17 Z"
       fill="#4a4a4f"
       fill-rule="evenodd"
       id="path35" />
    <path
       d="m 4,12 3,3 h 8 V 9 L 12,6 Z"
       fill="url(#h)"
       opacity="0.2"
       id="path37"
       style="fill:url(#h)" />
    <path
       d="m 4,6 h 8 v 6 H 4 Z"
       fill="#67aace"
       fill-rule="evenodd"
       id="path39" />
    <path
       d="m 4,6 v 6 h 8 V 6 Z m 1,1 h 6 v 4 H 5 Z"
       fill="#85c9ec"
       fill-rule="evenodd"
       id="path41" />
    <path
       d="m 20,26 3,3 h 8 v -6 l -3,-3 z"
       fill="url(#i)"
       opacity="0.2"
       id="path43"
       style="fill:url(#i)" />
    <path
       d="m 20,20 h 8 v 6 h -8 z"
       fill="#636367"
       id="path45" />
    <path
       d="m 20,20 v 6 h 8 v -6 z m 1,1 h 6 v 4 h -6 z"
       fill="#9a9b9d"
       id="path47" />
  </g>
  <path
     style="display:inline;mix-blend-mode:normal;fill:url(#linearGradient3403);fill-opacity:1;stroke:url(#linearGradient20558);stroke-width:1.16242;stroke-linecap:butt;stroke-linejoin:round;stroke-miterlimit:4;stroke-dasharray:none;stroke-opacity:1;filter:url(#filter20720)"
     d="M 4.7043071,3.9814882 4.6913695,60.80196 H 58.59546 l 1.022155,-2.866369 c 0,0 -23.87537,0.766388 -32.844441,-4.140386 C 16.257548,48.042344 11.401114,4.0978197 11.401114,4.0978197 Z"
     id="path1686"
     sodipodi:nodetypes="ccccscc"
     transform="matrix(0.49530655,0,0,0.49530655,0.32409325,0.23228439)"
     inkscape:label="folder" />
  <rect
     style="display:inline;fill:none;fill-opacity:1;stroke:url(#linearGradient4557);stroke-width:3.71366;stroke-linejoin:round;stroke-miterlimit:7.8;stroke-dasharray:none;stroke-opacity:0.995146;filter:url(#filter4601)"
     id="rect4539"
     width="62.567089"
     height="62.866646"
     x="1.0323594"
     y="0.59551275"
     ry="6.2447233"
     rx="5.8029528"
     transform="matrix(0.46399463,0,0,0.4630489,1.1562887,1.2331482)"
     inkscape:label="contour" />
</svg>

<svg width="32" height="32" version="1.1" viewBox="0 0 32 32" xmlns="http://www.w3.org/2000/svg" xmlns:xlink="http://www.w3.org/1999/xlink">
<defs>
<linearGradient id="linearGradient3403" x1="6.9492" x2="11.215" y1="4.5549" y2="59.052" gradientUnits="userSpaceOnUse">
<stop style="stop-color:#32373c" offset="0"/>
<stop style="stop-color:#1a1a1a" offset=".36805"/>
<stop style="stop-color:#31363b" offset="1"/>
</linearGradient>
<linearGradient id="linearGradient20558" x1="25.802" x2="25.111" y1="20.374" y2="58.913" gradientUnits="userSpaceOnUse">
<stop style="stop-color:#3d3d3d" offset="0"/>
<stop offset=".61772"/>
<stop style="stop-color:#3d3d3d" offset="1"/>
</linearGradient>
<linearGradient id="linearGradient4557" x1="43.5" x2="44.142" y1="64.012" y2=".30621" gradientTransform="translate(.36068 -.13017)" gradientUnits="userSpaceOnUse">
<stop style="stop-color:#141618" offset="0"/>
<stop style="stop-color:#686868" offset=".51821"/>
<stop style="stop-color:#31363b" offset="1"/>
</linearGradient>
<linearGradient id="c" x1="32" x2="32" y1="30" y2="2" gradientUnits="userSpaceOnUse">
<stop stop-color="#171d25" offset="0"/>
<stop stop-color="#303236" offset="1"/>
</linearGradient>
<linearGradient id="d" x1="8" x2="16" y1="9" y2="17" gradientUnits="userSpaceOnUse" xlink:href="#a"/>
<linearGradient id="a">
<stop offset="0"/>
<stop stop-opacity="0" offset="1"/>
</linearGradient>
<linearGradient id="e" x1="8" x2="15" y1="23" y2="30" gradientUnits="userSpaceOnUse" xlink:href="#a"/>
<linearGradient id="f" x1="24" x2="32" y1="9" y2="17" gradientUnits="userSpaceOnUse" xlink:href="#a"/>
<linearGradient id="g" x1="24" x2="31" y1="23" y2="30" gradientUnits="userSpaceOnUse" xlink:href="#a"/>
<linearGradient id="h" x1="8" x2="12" y1="9" y2="13" gradientUnits="userSpaceOnUse" xlink:href="#b"/>
<linearGradient id="b">
<stop stop-color="#292c2f" offset="0"/>
<stop stop-opacity="0" offset="1"/>
</linearGradient>
<linearGradient id="i" x1="24" x2="28" y1="23" y2="27" gradientUnits="userSpaceOnUse" xlink:href="#b"/>
</defs>
<g transform="matrix(.86087 0 0 .95415 2.569 .19343)">
<path d="m0 2h32v28h-32z" fill="url(#c)" fill-rule="evenodd" style="fill:url(#c)"/>
<path d="m1 15 2 2h12l2 2 2-2-2-2v-10l-2-2z" fill="url(#d)" opacity=".2" style="fill:url(#d)"/>
<path d="m1 29 1 1h16l-1-1v-10l-2-2z" fill="url(#e)" opacity=".2" style="fill:url(#e)"/>
<path d="m17 15 2 2h12l1 1v-14l-1-1z" fill="url(#f)" opacity=".2" style="fill:url(#f)"/>
<path d="m17 29 1 1h14v-12l-1-1z" fill="url(#g)" opacity=".2" style="fill:url(#g)"/>
<path d="m1 3h14v12h-14z" fill="#397da1" fill-rule="evenodd"/>
<path d="m1 17h14v12h-14zm16-14h14v12h-14zm0 14h14v12h-14z" fill="#4a4a4f" fill-rule="evenodd"/>
<path d="m4 12 3 3h8v-6l-3-3z" fill="url(#h)" opacity=".2" style="fill:url(#h)"/>
<path d="m4 6h8v6h-8z" fill="#67aace" fill-rule="evenodd"/>
<path d="m4 6v6h8v-6zm1 1h6v4h-6z" fill="#85c9ec" fill-rule="evenodd"/>
<path d="m20 26 3 3h8v-6l-3-3z" fill="url(#i)" opacity=".2" style="fill:url(#i)"/>
<path d="m20 20h8v6h-8z" fill="#636367"/>
<path d="m20 20v6h8v-6zm1 1h6v4h-6z" fill="#9a9b9d"/>
</g>
<path transform="matrix(.49531 0 0 .49531 .32409 .23228)" d="m4.7043 3.9815-0.012938 56.82h53.904l1.0222-2.8664s-23.875 0.76639-32.844-4.1404c-10.516-5.7529-15.372-49.697-15.372-49.697z" style="fill:url(#linearGradient3403);mix-blend-mode:normal;stroke-linejoin:round;stroke-width:1.1624;stroke:url(#linearGradient20558)"/>
<rect transform="matrix(.46399 0 0 .46305 1.1563 1.2331)" x="1.0324" y=".59551" width="62.567" height="62.867" rx="5.803" ry="6.2447" style="fill:none;stroke-linejoin:round;stroke-miterlimit:7.8;stroke-opacity:.99515;stroke-width:3.7137;stroke:url(#linearGradient4557)"/>
</svg>
